packages/core/src/svgs/ejs.svg

<svg width="24" height="24" viewBox="0 0 24 24" fill="none" xmlns="http://www.w3.org/2000/svg">
<g clip-path="url(#clip0_31_9786)">
<path d="M0 0H24V24H0V0Z" fill="#F0F3FA"/>
<path d="M15.4843 8.51129L11.7257 9.53986L12.09 9.90843L9.87426 12.1241C9.81854 12.1801 9.75234 12.2246 9.67943 12.255C9.60653 12.2855 9.52834 12.3012 9.44935 12.3014C9.37035 12.3016 9.29209 12.2862 9.21903 12.2562C9.14597 12.2261 9.07955 12.182 9.02355 12.1263C8.96755 12.0706 8.92307 12.0044 8.89266 11.9315C8.86224 11.8586 8.84648 11.7804 8.84629 11.7014C8.84609 11.6224 8.86145 11.5441 8.8915 11.4711C8.92154 11.398 8.96568 11.3316 9.0214 11.2756L13.2771 7.01986C12.185 6.73957 11.0311 6.82591 9.99292 7.26561C8.95473 7.70531 8.08979 8.474 7.53122 9.45338C6.97265 10.4328 6.75139 11.5686 6.90151 12.686C7.05162 13.8034 7.56479 14.8406 8.36203 15.6378C9.15927 16.435 10.1964 16.9482 11.3138 17.0983C12.4313 17.2484 13.5671 17.0272 14.5465 16.4686C15.5258 15.91 16.2945 15.0451 16.7342 14.0069C17.1739 12.9687 17.2603 11.8148 16.98 10.7227L12.7243 14.9784C12.6112 15.091 12.458 15.154 12.2985 15.1535C12.1389 15.1531 11.9861 15.0894 11.8735 14.9763C11.761 14.8632 11.698 14.71 11.6984 14.5505C11.6988 14.3909 11.7626 14.2381 11.8757 14.1256L14.0914 11.9099L14.4943 12.3084L15.4843 8.51129Z" fill="url(#paint0_linear_31_9786)"/>
<path d="M7.49991 14.4945L9.8742 12.1245C9.81848 12.1805 9.75228 12.2249 9.67937 12.2553C9.60646 12.2858 9.52828 12.3015 9.44928 12.3017C9.28974 12.3021 9.13658 12.2391 9.02348 12.1266C8.96748 12.0709 8.92301 12.0047 8.89259 11.9318C8.86218 11.8589 8.84642 11.7807 8.84622 11.7017C8.84582 11.5421 8.90881 11.389 9.02134 11.2759L7.01562 13.2773C7.12705 13.6973 7.28562 14.1087 7.49991 14.4945ZM11.8713 14.1302L9.50562 16.5002C9.89134 16.7145 10.3028 16.873 10.7228 16.9845L12.8013 14.9016L12.7242 14.9787C12.6117 15.0918 12.4588 15.1556 12.2993 15.156C12.1397 15.1564 11.9866 15.0934 11.8735 14.9809C11.7604 14.8684 11.6966 14.7155 11.6962 14.556C11.6958 14.3964 11.7588 14.2433 11.8713 14.1302Z" fill="#EA3D72"/>
<path d="M12.1499 13.8516L9.50562 16.5002L9.76705 16.633L11.7128 14.6873C11.6699 14.4945 11.7213 14.2802 11.8756 14.1302L12.1499 13.8516ZM7.10562 13.5859L8.86277 11.8373C8.81991 11.6402 8.87134 11.4259 9.02134 11.2759L7.01562 13.2773L7.10562 13.5902V13.5859Z" fill="#730D2B"/>
<path fill-rule="evenodd" clip-rule="evenodd" d="M11.9999 19.2856C13.9322 19.2856 15.7854 18.518 17.1517 17.1517C18.518 15.7854 19.2856 13.9322 19.2856 11.9999C19.2856 10.0676 18.518 8.21449 17.1517 6.84815C15.7854 5.48182 13.9322 4.71422 11.9999 4.71422C10.0676 4.71422 8.21449 5.48182 6.84815 6.84815C5.48182 8.21449 4.71422 10.0676 4.71422 11.9999C4.71422 13.9322 5.48182 15.7854 6.84815 17.1517C8.21449 18.518 10.0676 19.2856 11.9999 19.2856ZM11.9999 19.7142C13.013 19.7142 14.0161 19.5147 14.9521 19.127C15.888 18.7393 16.7384 18.1711 17.4548 17.4548C18.1711 16.7384 18.7393 15.888 19.127 14.9521C19.5147 14.0161 19.7142 13.013 19.7142 11.9999C19.7142 10.9869 19.5147 9.98374 19.127 9.0478C18.7393 8.11186 18.1711 7.26144 17.4548 6.54511C16.7384 5.82877 15.888 5.26054 14.9521 4.87286C14.0161 4.48518 13.013 4.28564 11.9999 4.28564C9.95397 4.28564 7.99182 5.0984 6.54511 6.54511C5.0984 7.99182 4.28564 9.95397 4.28564 11.9999C4.28564 14.0459 5.0984 16.008 6.54511 17.4548C7.99182 18.9015 9.95397 19.7142 11.9999 19.7142Z" fill="url(#paint1_linear_31_9786)"/>
</g>
<defs>
<linearGradient id="paint0_linear_31_9786" x1="15.4843" y1="8.51558" x2="8.3614" y2="15.6384" gradientUnits="userSpaceOnUse">
<stop stop-color="#8F3EDA"/>
<stop offset="1" stop-color="#E73E73"/>
</linearGradient>
<linearGradient id="paint1_linear_31_9786" x1="19.7142" y1="11.9999" x2="4.73993" y2="11.9999" gradientUnits="userSpaceOnUse">
<stop stop-color="#864BD0"/>
<stop offset="1" stop-color="#E54077"/>
</linearGradient>
<clipPath id="clip0_31_9786">
<rect width="24" height="24" fill="white"/>
</clipPath>
</defs>
</svg>

<svg xmlns="http://www.w3.org/2000/svg" width="24" height="24" fill="none" viewBox="0 0 24 24"><g clip-path="url(#a)"><path fill="#F0F3FA" d="M0 0h24v24H0z"/><path fill="url(#b)" d="M15.484 8.511 11.726 9.54l.364.368-2.216 2.216a.601.601 0 1 1-.853-.848l4.256-4.256a5.143 5.143 0 1 0 3.703 3.703l-4.256 4.255a.6.6 0 1 1-.848-.852l2.215-2.216.403.398z"/><path fill="#EA3D72" d="m7.5 14.495 2.374-2.37a.601.601 0 0 1-.853-.85l-2.005 2.002c.111.42.27.832.484 1.218m4.371-.365L9.506 16.5c.385.215.797.373 1.217.485l2.078-2.083-.077.077a.602.602 0 1 1-.853-.849"/><path fill="#730D2B" d="M12.15 13.852 9.506 16.5l.261.133 1.946-1.946a.6.6 0 0 1 .163-.557zm-5.044-.266 1.757-1.749a.61.61 0 0 1 .158-.561l-2.005 2.001.09.313z"/><path fill="url(#c)" fill-rule="evenodd" d="M12 19.286a7.286 7.286 0 1 0 0-14.572 7.286 7.286 0 0 0 0 14.572m0 .428a7.714 7.714 0 1 0 0-15.428 7.714 7.714 0 0 0 0 15.428" clip-rule="evenodd"/></g><defs><linearGradient id="b" x1="15.484" x2="8.361" y1="8.516" y2="15.638" gradientUnits="userSpaceOnUse"><stop stop-color="#8F3EDA"/><stop offset="1" stop-color="#E73E73"/></linearGradient><linearGradient id="c" x1="19.714" x2="4.74" y1="12" y2="12" gradientUnits="userSpaceOnUse"><stop stop-color="#864BD0"/><stop offset="1" stop-color="#E54077"/></linearGradient><clipPath id="a"><path fill="#fff" d="M0 0h24v24H0z"/></clipPath></defs></svg>
